flaticon/army-badges/target-14.svg

<svg xmlns="http://www.w3.org/2000/svg" width="32" height="32" viewBox="0 0 24 24">
    <path d="M 12 0 C 5.398438 0 0 5.359375 0 12 C 0 18.640625 5.398438 24 12 24 C 18.601562 24 24 18.601562 24 12 C 24 5.398438 18.601562 0 12 0 Z M 12 23.199219 C 5.839844 23.199219 0.800781 18.160156 0.800781 12 C 0.800781 5.839844 5.839844 0.800781 12 0.800781 C 18.160156 0.800781 23.199219 5.839844 23.199219 12 C 23.199219 18.160156 18.160156 23.199219 12 23.199219 Z M 12 23.199219"/>
    <path d="M 12 1.601562 C 6.28125 1.601562 1.601562 6.28125 1.601562 12 C 1.601562 17.761719 6.28125 22.398438 12 22.398438 C 17.71875 22.398438 22.398438 17.761719 22.398438 12 C 22.398438 6.28125 17.71875 1.601562 12 1.601562 Z M 21.589844 11.601562 L 17.585938 11.601562 C 17.386719 8.835938 15.164062 6.613281 12.398438 6.414062 L 12.398438 2.410156 C 17.363281 2.613281 21.386719 6.636719 21.589844 11.601562 Z M 15.601562 12.398438 L 16.78125 12.398438 C 16.589844 14.722656 14.722656 16.589844 12.398438 16.78125 L 12.398438 15.601562 C 12.398438 15.359375 12.238281 15.199219 12 15.199219 C 11.761719 15.199219 11.601562 15.359375 11.601562 15.601562 L 11.601562 16.78125 C 9.277344 16.589844 7.410156 14.722656 7.21875 12.398438 L 8.398438 12.398438 C 8.640625 12.398438 8.800781 12.238281 8.800781 12 C 8.800781 11.761719 8.640625 11.601562 8.398438 11.601562 L 7.21875 11.601562 C 7.410156 9.277344 9.277344 7.410156 11.601562 7.21875 L 11.601562 8.398438 C 11.601562 8.640625 11.761719 8.800781 12 8.800781 C 12.238281 8.800781 12.398438 8.640625 12.398438 8.398438 L 12.398438 7.21875 C 14.722656 7.410156 16.589844 9.277344 16.78125 11.601562 L 15.601562 11.601562 C 15.359375 11.601562 15.199219 11.761719 15.199219 12 C 15.199219 12.238281 15.359375 12.398438 15.601562 12.398438 Z M 11.601562 2.410156 L 11.601562 6.414062 C 8.835938 6.613281 6.613281 8.835938 6.414062 11.601562 L 2.410156 11.601562 C 2.613281 6.636719 6.636719 2.613281 11.601562 2.410156 Z M 2.410156 12.398438 L 6.414062 12.398438 C 6.613281 15.164062 8.835938 17.386719 11.601562 17.585938 L 11.601562 21.589844 C 6.636719 21.386719 2.613281 17.363281 2.410156 12.398438 Z M 12.398438 21.589844 L 12.398438 17.585938 C 15.164062 17.386719 17.386719 15.164062 17.585938 12.398438 L 21.589844 12.398438 C 21.386719 17.363281 17.363281 21.386719 12.398438 21.589844 Z M 12.398438 21.589844"/>
    <path d="M 13.601562 11.601562 L 12.398438 11.601562 L 12.398438 10.398438 C 12.398438 10.160156 12.238281 10 12 10 C 11.761719 10 11.601562 10.160156 11.601562 10.398438 L 11.601562 11.601562 L 10.398438 11.601562 C 10.160156 11.601562 10 11.761719 10 12 C 10 12.238281 10.160156 12.398438 10.398438 12.398438 L 11.601562 12.398438 L 11.601562 13.601562 C 11.601562 13.839844 11.761719 14 12 14 C 12.238281 14 12.398438 13.839844 12.398438 13.601562 L 12.398438 12.398438 L 13.601562 12.398438 C 13.839844 12.398438 14 12.238281 14 12 C 14 11.761719 13.839844 11.601562 13.601562 11.601562 Z M 13.601562 11.601562"/>
</svg>

<svg xmlns="http://www.w3.org/2000/svg" width="32" height="32" viewBox="0 0 24 24">
    <path d="M12 0C5.398 0 0 5.36 0 12s5.398 12 12 12 12-5.398 12-12S18.602 0 12 0zm0 23.2C5.84 23.2.8 18.16.8 12 .8 5.84 5.84.8 12 .8 18.16.8 23.2 5.84 23.2 12c0 6.16-5.04 11.2-11.2 11.2zm0 0"/>
    <path d="M12 1.602C6.281 1.602 1.602 6.282 1.602 12c0 5.762 4.68 10.398 10.398 10.398 5.719 0 10.398-4.636 10.398-10.398 0-5.719-4.68-10.398-10.398-10.398zm9.59 10h-4.004a5.623 5.623 0 0 0-5.188-5.188V2.41c4.965.203 8.989 4.227 9.192 9.192zm-5.988.796h1.18a4.811 4.811 0 0 1-4.384 4.383v-1.18c0-.242-.16-.402-.398-.402-.238 0-.398.16-.398.403v1.18a4.811 4.811 0 0 1-4.383-4.384h1.18c.242 0 .402-.16.402-.398 0-.238-.16-.398-.403-.398h-1.18a4.811 4.811 0 0 1 4.384-4.383v1.18c0 .242.16.402.398.402.238 0 .398-.16.398-.403v-1.18a4.811 4.811 0 0 1 4.383 4.384h-1.18c-.242 0-.402.16-.402.398 0 .238.16.398.403.398zm-4-9.988v4.004a5.623 5.623 0 0 0-5.188 5.188H2.41c.203-4.965 4.227-8.989 9.192-9.192zM2.41 12.398h4.004a5.623 5.623 0 0 0 5.188 5.188v4.004c-4.965-.203-8.989-4.227-9.192-9.192zm9.988 9.192v-4.004a5.623 5.623 0 0 0 5.188-5.188h4.004c-.203 4.965-4.227 8.989-9.192 9.192zm0 0"/>
    <path d="M13.602 11.602h-1.204v-1.204c0-.238-.16-.398-.398-.398-.238 0-.398.16-.398.398v1.204h-1.204c-.238 0-.398.16-.398.398 0 .238.16.398.398.398h1.204v1.204c0 .238.16.398.398.398.238 0 .398-.16.398-.398v-1.204h1.204c.238 0 .398-.16.398-.398 0-.238-.16-.398-.398-.398zm0 0"/>
</svg>
